X: 2
T: Pull The Knife And Stick It Again
R: jig
M: 6/8
L: 1/8
K: Edor
|: E3 GFE | DB,E DB,D | E3 GFE | ABG AFD |E2F GFE | DB,E DEF | G2E FED | B,ED E3 :||: edB BAF | EDB, D3 | edB BAF | ABc def |edB BAF | EDB, DEF | G2E FED | B,ED E3 :|


Tune 398	Setting 13241

